public/assests/icons/social-linkedin.svg

<svg width="15" height="15" viewBox="0 0 15 15" fill="none" xmlns="http://www.w3.org/2000/svg">
<path d="M13.9309 0.498535H1.62207C1.03244 0.498535 0.555664 0.96403 0.555664 1.53955V13.8991C0.555664 14.4747 1.03244 14.943 1.62207 14.943H13.9309C14.5205 14.943 15.0001 14.4747 15.0001 13.902V1.53955C15.0001 0.96403 14.5205 0.498535 13.9309 0.498535ZM4.84104 12.8073H2.69694V5.91238H4.84104V12.8073ZM3.76899 4.97293C3.08062 4.97293 2.52485 4.41716 2.52485 3.73161C2.52485 3.04606 3.08062 2.49029 3.76899 2.49029C4.45454 2.49029 5.01031 3.04606 5.01031 3.73161C5.01031 4.41433 4.45454 4.97293 3.76899 4.97293ZM12.8645 12.8073H10.7232V9.45578C10.7232 8.65739 10.7091 7.62766 9.60883 7.62766C8.49447 7.62766 8.3252 8.4994 8.3252 9.39936V12.8073H6.18674V5.91238H8.24056V6.85466H8.26877C8.55371 6.31299 9.25336 5.74029 10.2944 5.74029C12.4639 5.74029 12.8645 7.16781 12.8645 9.02414V12.8073Z" fill="white"/>
</svg>

<svg width="15" height="15" fill="none" xmlns="http://www.w3.org/2000/svg"><path d="M13.9309.4985H1.6221C1.0324.4985.5557.964.5557 1.5395v12.3596c0 .5756.4767 1.0439 1.0664 1.0439h12.3088c.5896 0 1.0692-.4683 1.0692-1.041V1.5396c0-.5756-.4796-1.041-1.0692-1.041ZM4.841 12.8073H2.697v-6.895h2.144v6.895ZM3.769 4.9729c-.6884 0-1.2442-.5557-1.2442-1.2413 0-.6855.5558-1.2413 1.2442-1.2413.6855 0 1.2413.5558 1.2413 1.2413 0 .6827-.5558 1.2413-1.2413 1.2413Zm9.0955 7.8344h-2.1413V9.4558c0-.7984-.0141-1.8281-1.1144-1.8281-1.1143 0-1.2836.8717-1.2836 1.7717v3.4079H6.1867v-6.895h2.0539v.9424h.0282c.285-.5417.9846-1.1144 2.0256-1.1144 2.1695 0 2.5701 1.4275 2.5701 3.2838v3.7832Z" fill="#fff"/></svg>
